X:34
T:Roundtable Rival
C:Lindsey Stirling
Z:Drew Andis
Z:(not available at the current moment)
% key D
L:1/16
Q:1/4=128
M:4/4
I:linebreak $
K:Cmaj
A4 e3 A c d c B A2 E A | c2 A c e2 A2 c2 d2 (3c d c B2 | A4 e3 A c d c B A2 E A | 
c A e c a e b e (3c' d' c' b2 a4 | a4 e'3 a c' d' c' b a2 e a | 
c'2 a b c'2 d'2 e'2 f'2 (3e' f' e' d'2 | a4 e'3 a c' d' c' b a2 e a | 
c' d' e' f' e' d' c' b a e c B A2 z2 | 

